svgs/sharp-regular/city.svg

<svg xmlns="http://www.w3.org/2000/svg" viewBox="0 0 640 512"><!--! Font Awesome Pro 6.6.0 by @fontawesome - https://fontawesome.com License - https://fontawesome.com/license (Commercial License) Copyright 2024 Fonticons, Inc. --><path d="M128 0l0 24 0 40 48 0 0-40 0-24 48 0 0 24 0 40 0 24 0 8 0 16-48 0-48 0-48 0-32 0 0 352 176 0 0 48L24 512 0 512l0-24L0 88 0 64l24 0 56 0 0-40L80 0l48 0zM512 112l0 48 48 0 32 0 48 0 0 48 0 256 0 48-48 0-80 0-208 0-48 0 0-48 0-304 0-112 0-48 48 0L464 0l48 0 0 48 0 64zM464 48L304 48l0 112 0 304 208 0 80 0 0-256-80 0-48 0 0-48 0-112zM352 352l0-64 64 0 0 64-64 0zM416 96l0 64-64 0 0-64 64 0zM352 256l0-64 64 0 0 64-64 0zm192 96l0 64-64 0 0-64 64 0zM96 320l0-64 64 0 0 64-64 0zm0 96l0-64 64 0 0 64-64 0zm64-256l0 64-64 0 0-64 64 0zM480 320l0-64 64 0 0 64-64 0z"/></svg>

<svg xmlns="http://www.w3.org/2000/svg" viewBox="0 0 640 512"><!--! Font Awesome Pro 6.4.0 by @fontawesome - https://fontawesome.com License - https://fontawesome.com/license (Commercial License) Copyright 2023 Fonticons, Inc. --><path d="M128 0V24 64h48V24 0h48V24 64 88v8 16H176 128 80 48V464H224v48H24 0V488 88 64H24 80V24 0h48zM512 112v48h48 32 48v48V464v48H592 512 304 256V464 160 48 0h48H464h48V48v64zM464 48H304V160 464H512h80V208H512 464V160 48zM352 352V288h64v64H352zM416 96v64H352V96h64zM352 256V192h64v64H352zm192 96v64H480V352h64zM96 320V256h64v64H96zm0 96V352h64v64H96zm64-256v64H96V160h64zM480 320V256h64v64H480z"/></svg>
